assets/icons/kids/calendar-2.svg

<svg width="24" height="24" viewBox="0 0 24 24" fill="none" xmlns="http://www.w3.org/2000/svg">
<path d="M1.80493 5.34168C1.80493 4.7722 2.26659 4.31055 2.83606 4.31055H21.1637C21.7331 4.31055 22.1948 4.7722 22.1948 5.34168V20.5686C22.1948 21.1381 21.7331 21.5997 21.1637 21.5997H2.83606C2.26659 21.5997 1.80493 21.1381 1.80493 20.5686V5.34168Z" fill="#A3D0F0"/>
<path d="M1.80493 5.34168C1.80493 4.7722 2.26659 4.31055 2.83606 4.31055H21.1637C21.7331 4.31055 22.1948 4.7722 22.1948 5.34168V19.9424C22.1948 20.5119 21.7331 20.9736 21.1637 20.9736H2.83606C2.26659 20.9736 1.80493 20.5119 1.80493 19.9424V5.34168Z" fill="#CAE9FF"/>
<path d="M1.80493 5.34168C1.80493 4.7722 2.26659 4.31055 2.83606 4.31055H21.1637C21.7331 4.31055 22.1948 4.7722 22.1948 5.34168V9.41354H1.80493V5.34168Z" fill="#0588E2"/>
<path d="M21.2252 18.8876L22.1724 5.62718C22.2479 4.57037 21.0468 3.91366 20.1979 4.54756L2.31786 17.8982C1.3613 18.6125 1.87099 20.1334 3.06477 20.127L19.9976 20.0368C20.6442 20.0333 21.1792 19.5326 21.2252 18.8876Z" fill="#70B6E8"/>
<path d="M1.80493 5.34168C1.80493 4.7722 2.26659 4.31055 2.83606 4.31055H20.9962C21.627 4.31055 22.11 4.87192 22.0158 5.49567L20.1141 18.0866C20.0409 18.5714 19.6365 18.9375 19.1469 18.9624L2.88843 19.7892C2.29914 19.8191 1.80493 19.3494 1.80493 18.7594V5.34168Z" fill="white"/>
<path d="M1.80493 5.34168C1.80493 4.7722 2.26659 4.31055 2.83606 4.31055H20.9966C21.6273 4.31055 22.1102 4.87172 22.0162 5.49538L21.4255 9.41354H1.80493V5.34168Z" fill="#0588E2"/>
<rect x="3.50635" y="13.3594" width="2.4723" height="2.03408" rx="0.304517" fill="#4EB5FE"/>
<rect opacity="0.5" x="6.90405" y="13.3574" width="2.4723" height="2.03408" rx="0.304517" fill="#4EB5FE"/>
<rect opacity="0.5" x="10.1025" y="13.3594" width="2.4723" height="2.03408" rx="0.304517" fill="#4EB5FE"/>
<rect x="13.4944" y="10.6016" width="2.4723" height="2.03408" rx="0.304517" fill="#4EB5FE"/>
<rect x="10.1013" y="10.6016" width="2.4723" height="2.03408" rx="0.304517" fill="#4EB5FE"/>
<rect opacity="0.5" x="3.50635" y="16.1172" width="2.4723" height="2.03408" rx="0.304517" fill="#4EB5FE"/>
<rect opacity="0.5" x="6.90405" y="16.1113" width="2.4723" height="2.03408" rx="0.304517" fill="#4EB5FE"/>
<ellipse cx="5.82669" cy="5.5727" rx="0.648467" ry="0.650825" fill="#0E538E"/>
<ellipse cx="12.2019" cy="5.5727" rx="0.648467" ry="0.650825" fill="#0E538E"/>
<ellipse cx="18.1714" cy="5.5727" rx="0.648467" ry="0.650825" fill="#0E538E"/>
<rect x="17.6809" y="2.40039" width="0.9727" height="3.63289" rx="0.48635" fill="#FFA221"/>
<mask id="mask0_15698_69170" style="mask-type:alpha" maskUnits="userSpaceOnUse" x="17" y="2" width="2" height="5">
<rect x="17.6794" y="2.40039" width="0.9727" height="3.63289" rx="0.48635" fill="#FFA221"/>
</mask>
<g mask="url(#mask0_15698_69170)">
<rect x="18.0034" y="1.6582" width="0.9727" height="3.63289" rx="0.48635" fill="#FFC343"/>
</g>
<rect x="11.7173" y="2.40039" width="0.9727" height="3.63289" rx="0.48635" fill="#FFA221"/>
<mask id="mask1_15698_69170" style="mask-type:alpha" maskUnits="userSpaceOnUse" x="11" y="2" width="2" height="5">
<rect x="11.7163" y="2.40039" width="0.9727" height="3.63289" rx="0.48635" fill="#FFA221"/>
</mask>
<g mask="url(#mask1_15698_69170)">
<rect x="12.0403" y="1.6582" width="0.9727" height="3.63289" rx="0.48635" fill="#FFC343"/>
</g>
<rect x="5.34424" y="2.40039" width="0.9727" height="3.63289" rx="0.48635" fill="#FFA221"/>
<mask id="mask2_15698_69170" style="mask-type:alpha" maskUnits="userSpaceOnUse" x="5" y="2" width="2" height="5">
<rect x="5.34619" y="2.40039" width="0.9727" height="3.63289" rx="0.48635" fill="#FFA221"/>
</mask>
<g mask="url(#mask2_15698_69170)">
<rect x="5.6748" y="1.6582" width="0.9727" height="3.63289" rx="0.48635" fill="#FFC343"/>
</g>
</svg>

<svg xmlns="http://www.w3.org/2000/svg" width="24" height="24" fill="none" viewBox="0 0 24 24"><path fill="#a3d0f0" d="M1.805 5.342c0-.57.462-1.031 1.031-1.031h18.328c.57 0 1.03.461 1.03 1.03V20.57c0 .57-.46 1.03-1.03 1.03H2.836a1.03 1.03 0 0 1-1.031-1.03z"/><path fill="#cae9ff" d="M1.805 5.342c0-.57.462-1.031 1.031-1.031h18.328c.57 0 1.03.461 1.03 1.03v14.601c0 .57-.46 1.032-1.03 1.032H2.836c-.57 0-1.031-.462-1.031-1.032z"/><path fill="#0588e2" d="M1.805 5.342c0-.57.462-1.031 1.031-1.031h18.328c.57 0 1.03.461 1.03 1.03v4.073H1.805z"/><path fill="#70b6e8" d="m21.225 18.888.947-13.26c.076-1.058-1.125-1.714-1.974-1.08l-17.88 13.35c-.957.715-.447 2.235.747 2.229l16.933-.09a1.237 1.237 0 0 0 1.227-1.15"/><path fill="#fff" d="M1.805 5.342c0-.57.462-1.031 1.031-1.031h18.16c.631 0 1.114.56 1.02 1.185l-1.902 12.59a1.03 1.03 0 0 1-.967.876l-16.259.827a1.03 1.03 0 0 1-1.083-1.03z"/><path fill="#0588e2" d="M1.805 5.342c0-.57.462-1.031 1.031-1.031h18.16c.631 0 1.114.56 1.02 1.184l-.59 3.919H1.805z"/><rect width="2.472" height="2.034" x="3.506" y="13.359" fill="#4eb5fe" rx=".305"/><rect width="2.472" height="2.034" x="6.904" y="13.357" fill="#4eb5fe" opacity=".5" rx=".305"/><rect width="2.472" height="2.034" x="10.102" y="13.359" fill="#4eb5fe" opacity=".5" rx=".305"/><rect width="2.472" height="2.034" x="13.494" y="10.602" fill="#4eb5fe" rx=".305"/><rect width="2.472" height="2.034" x="10.101" y="10.602" fill="#4eb5fe" rx=".305"/><rect width="2.472" height="2.034" x="3.506" y="16.117" fill="#4eb5fe" opacity=".5" rx=".305"/><rect width="2.472" height="2.034" x="6.904" y="16.111" fill="#4eb5fe" opacity=".5" rx=".305"/><ellipse cx="5.827" cy="5.573" fill="#0e538e" rx=".648" ry=".651"/><ellipse cx="12.202" cy="5.573" fill="#0e538e" rx=".648" ry=".651"/><ellipse cx="18.171" cy="5.573" fill="#0e538e" rx=".648" ry=".651"/><rect width=".973" height="3.633" x="17.681" y="2.4" fill="#ffa221" rx=".486"/><mask id="a" width="2" height="5" x="17" y="2" maskUnits="userSpaceOnUse" style="mask-type:alpha"><rect width=".973" height="3.633" x="17.679" y="2.4" fill="#ffa221" rx=".486"/></mask><g mask="url(#a)"><rect width=".973" height="3.633" x="18.003" y="1.658" fill="#ffc343" rx=".486"/></g><rect width=".973" height="3.633" x="11.717" y="2.4" fill="#ffa221" rx=".486"/><mask id="b" width="2" height="5" x="11" y="2" maskUnits="userSpaceOnUse" style="mask-type:alpha"><rect width=".973" height="3.633" x="11.716" y="2.4" fill="#ffa221" rx=".486"/></mask><g mask="url(#b)"><rect width=".973" height="3.633" x="12.04" y="1.658" fill="#ffc343" rx=".486"/></g><rect width=".973" height="3.633" x="5.344" y="2.4" fill="#ffa221" rx=".486"/><mask id="c" width="2" height="5" x="5" y="2" maskUnits="userSpaceOnUse" style="mask-type:alpha"><rect width=".973" height="3.633" x="5.346" y="2.4" fill="#ffa221" rx=".486"/></mask><g mask="url(#c)"><rect width=".973" height="3.633" x="5.675" y="1.658" fill="#ffc343" rx=".486"/></g></svg>
